public/static/img/market/chase.svg

<svg xmlns="http://www.w3.org/2000/svg" width="159" height="68" viewBox="0 0 159 68" fill="none">
  <line x1="1" y1="65.5" x2="157" y2="65.5" stroke="#414345"/>
  <line x1="1.5" y1="63" x2="1.5" y2="68" stroke="#414345"/>
  <line x1="79.5" y1="63" x2="79.5" y2="68" stroke="#414345"/>
  <line x1="157.5" y1="63" x2="157.5" y2="68" stroke="#414345"/>
  <path d="M1 38.9998C1.5 38.4998 3 37.4998 5 37.4998C7.5 37.4998 8.5 40.4998 10 37.4998C11.5 34.4998 12.5 37.4998 14.5 37.4998C16.5 37.4998 16.5 33 19 33.5C21.5 34 19 37.0002 23.5 33.5C28 29.9998 30.5 26.4996 32 29.9998C33.5 33.5 38 32 40.5 29.9998C45.185 26.2513 47.5 17.9996 50.5 19.9996C53.5 21.9996 49 27.9999 55.5 25.9999C62 23.9999 63.5 19.9996 66 19.9996C68.5 19.9996 68.5 23.4999 72 23.4999C75.5 23.4999 77 13.9999 80 15.4999C83 16.9999 95.5 19.9999 98 15.4999C100.5 10.9999 105 9.49993 108.5 12.4999C112 15.4999 117 14.5001 118.5 12.4999C120 10.4997 124.5 4.49969 128 4.99969C131.5 5.49969 131.5 16.9998 137 15.4999C142.5 14 155 1 158 1" stroke="#00A609" stroke-width="2" stroke-linecap="round" stroke-linejoin="round"/>
  <path d="M1.50005 49.5001C1.16671 50.0001 1.30005 51.0001 4.50005 51.0001C8.50005 51.0001 4 45.0001 7 45.5001C10 46.0001 8.5 49.5001 10 49.5001C11.5 49.5001 11.5 45.0003 14 44.5003C16.5 44.0003 17.5 48.0001 19 49.5001C20.5 51.0001 20.5 48.5003 21.5 48.0003C22.5 47.5003 26 45.0005 27 48.0003C28 51.0001 27.5 48.0003 29 48.0003C30.5 48.0003 30.5 40.0003 32.5 41.0003C34.5 42.0003 41.5 43.5002 44.5 39.0002C47.5 34.5002 48 28.5002 52 30.5002C56 32.5002 59 21.5002 63.5 17.0002C68 12.5002 71.5 22.5002 74.5 26.5002C77.5 30.5002 79 38 83.5 38C88 38 87 41.4997 86.5 43C86 44.5003 87.5 49.9999 92 45.5001C96.5 41.0003 98 39.0006 100 41.0003C102 43 106 44.9997 109.5 43C113 41.0003 113.5 39.0002 116.5 39.0002C119.5 39.0002 121 36.4998 124.5 33.5C128 30.5002 132 31.9998 135 35.5C138 39.0002 145.5 22.5 150.5 22C154.5 21.6 157.167 27.5002 158 30.5002" stroke="#DC5959" stroke-width="2" stroke-linecap="round" stroke-linejoin="round"/>
</svg>

<svg xmlns="http://www.w3.org/2000/svg" width="159" height="68" fill="none"><path stroke="#414345" d="M1 65.5h156M1.5 63v5m78-5v5m78-5v5"/><path d="M1 39c.5-.5 2-1.5 4-1.5 2.5 0 3.5 3 5 0s2.5 0 4.5 0 2-4.5 4.5-4 0 3.5 4.5 0 7-7 8.5-3.5 6 2 8.5 0c4.685-3.749 7-12 10-10s-1.5 8 5 6 8-6 10.5-6 2.5 3.5 6 3.5 5-9.5 8-8 15.5 4.5 18 0 7-6 10.5-3 8.5 2 10 0 6-8 9.5-7.5 3.5 12 9 10.5S155 1 158 1" stroke="#00A609" stroke-width="2" stroke-linecap="round" stroke-linejoin="round"/><path d="M1.5 49.5c-.333.5-.2 1.5 3 1.5 4 0-.5-6 2.5-5.5s1.5 4 3 4 1.5-4.5 4-5 3.5 3.5 5 5 1.5-1 2.5-1.5 4.5-3 5.5 0 .5 0 2 0 1.5-8 3.5-7 9 2.5 12-2S48 28.5 52 30.5s7-9 11.5-13.5 8 5.5 11 9.5S79 38 83.5 38s3.5 3.5 3 5 1 7 5.5 2.5 6-6.5 8-4.5 6 4 9.5 2 4-4 7-4 4.5-2.5 8-5.5 7.5-1.5 10.5 2 10.5-13 15.5-13.5c4-.4 6.667 5.5 7.5 8.5" stroke="#DC5959" stroke-width="2" stroke-linecap="round" stroke-linejoin="round"/></svg>
